resources/haticons/SVG/list-numbered.svg

<!-- Generated by IcoMoon.io -->
<svg version="1.1" xmlns="http://www.w3.org/2000/svg" width="24" height="24" viewBox="0 0 24 24">
<title>list-numbered</title>
<path d="M9 19.5h15v3h-15zM9 10.5h15v3h-15zM9 1.5h15v3h-15zM4.5 0v6h-1.5v-4.5h-1.5v-1.5zM3 12.328v1.172h3v1.5h-4.5v-3.422l3-1.406v-1.172h-3v-1.5h4.5v3.422zM6 16.5v7.5h-4.5v-1.5h3v-1.5h-3v-1.5h3v-1.5h-3v-1.5z"></path>
</svg>

<svg xmlns="http://www.w3.org/2000/svg" width="24" height="24"><path d="M9 19.5h15v3H9zm0-9h15v3H9zm0-9h15v3H9zM4.5 0v6H3V1.5H1.5V0zM3 12.328V13.5h3V15H1.5v-3.422l3-1.406V9h-3V7.5H6v3.422zM6 16.5V24H1.5v-1.5h3V21h-3v-1.5h3V18h-3v-1.5z"/></svg>
